!!!OTL: ES IST BALD ZEIT ZUM SCHLAFEN
!!!ARE: Europa, Mitteleuropa, Deutschland, Hessen, Lahntal; Limburg;     Westerwald
!!!SCT: E0816E
!!!YEM: Copyright 1995, estate of Helmut Schaffrath.
**kern
*ICvox
*Ivox
*M4/4
*k[f#]
*G:
{4d
=1
4g
4dd
4dd
8dd
8b
=2
4a
8b
8a
4.g}
{8a
=3
4.b
8cc
4dd
4dd
=4
4ee
8dd
8cc
4b}
{8dd
8b
=5
4a
4dd
4b
4dd
=6
8cc
8dd
4ee
4dd}
{4dd
=7
4ee
8dd
8cc
4b
4dd
=8
4b
8b
8a
4g}
==
!!!AGN: Kilt - Lied
!!!ONB: ESAC (Essen Associative Code) Database: ERK2
!!!AMT: simple quadruple
!!!AIN: vox
!!!EED: Helmut Schaffrath
!!!EEV: 1.0
*-
!!!title: @{OTL} [@{SCT}]
